dist/assets/img/mail.svg

<svg width="13" height="12" viewBox="0 0 13 12" fill="none" xmlns="http://www.w3.org/2000/svg">
<path d="M11.2374 0.665039H1.56524C0.701844 0.665039 0 1.42297 0 2.35538V9.49428C0 10.4267 0.701844 11.1846 1.56524 11.1846H11.2348C12.0982 11.1846 12.8 10.4267 12.8 9.49428V2.35824C12.8027 1.42583 12.1008 0.665039 11.2374 0.665039ZM12.0876 9.49428C12.0876 10.0005 11.7062 10.4124 11.2374 10.4124H1.56524C1.09647 10.4124 0.715086 10.0005 0.715086 9.49428V2.35824C0.715086 1.85199 1.09647 1.44014 1.56524 1.44014H11.2348C11.7036 1.44014 12.085 1.85199 12.085 2.35824V9.49428H12.0876Z" fill="#161616"/>
<path d="M8.07252 5.83069L11.203 2.79892C11.3487 2.65591 11.3619 2.4128 11.2295 2.25263C11.0971 2.09532 10.8719 2.08102 10.7236 2.22403L6.40663 6.40844L5.56441 5.59615C5.56177 5.59329 5.55912 5.59043 5.55912 5.58757C5.54058 5.56755 5.52204 5.55039 5.50085 5.53323L2.07373 2.22117C1.92542 2.07816 1.7003 2.09246 1.56787 2.25263C1.43545 2.4128 1.44869 2.65591 1.597 2.79892L4.76458 5.85643L1.61025 9.04551C1.46723 9.19137 1.45928 9.43449 1.59436 9.59179C1.66587 9.67188 1.76121 9.71478 1.85655 9.71478C1.94395 9.71478 2.03135 9.68046 2.10021 9.61182L5.30222 6.37698L6.17091 7.215C6.23977 7.28079 6.32452 7.31225 6.40928 7.31225C6.49403 7.31225 6.58143 7.27793 6.64764 7.21214L7.54017 6.34837L10.7236 9.61468C10.7925 9.68618 10.8825 9.7205 10.9699 9.7205C11.0653 9.7205 11.158 9.68046 11.2295 9.60038C11.3646 9.44593 11.3593 9.19995 11.2162 9.05409L8.07252 5.83069Z" fill="#161616"/>
</svg>

<svg width="13" height="12" fill="none" xmlns="http://www.w3.org/2000/svg"><path d="M11.237.665H1.565C.702.665 0 1.423 0 2.355v7.14c0 .932.702 1.69 1.565 1.69h9.67c.863 0 1.565-.758 1.565-1.69V2.357c.003-.932-.7-1.693-1.563-1.693zm.85 8.83c0 .506-.38.917-.85.917H1.565c-.469 0-.85-.412-.85-.918V2.358c0-.506.381-.918.85-.918h9.67c.469 0 .85.412.85.918v7.136h.003z" fill="#161616"/><path d="M8.073 5.83l3.13-3.031a.41.41 0 00.027-.546.341.341 0 00-.506-.029L6.407 6.408l-.843-.812c-.002-.003-.005-.006-.005-.008a.543.543 0 00-.058-.055L2.074 2.221a.339.339 0 00-.506.032.407.407 0 00.029.546l3.168 3.057-3.155 3.19a.41.41 0 00-.016.546c.072.08.167.123.263.123a.344.344 0 00.243-.103l3.202-3.235.869.838a.342.342 0 00.238.097.341.341 0 00.239-.1l.892-.864 3.184 3.267a.342.342 0 00.505-.015.41.41 0 00-.013-.546L8.073 5.831z" fill="#161616"/></svg>
